src/components/Icon/assets/cloud-download.svg

<svg width="24" height="24" viewBox="0 0 24 24" fill="none" xmlns="http://www.w3.org/2000/svg">
<path fill-rule="evenodd" clip-rule="evenodd" d="M16.8349 6.837H16.9209C20.2729 6.837 22.9999 9.565 22.9999 12.917C22.9999 16.27 20.2729 18.997 16.9209 18.997H16.0039V16.997H16.9209C19.1699 16.997 20.9999 15.167 20.9999 12.917C20.9999 10.667 19.1699 8.837 16.9209 8.837H15.7219L15.4329 8.343C14.7129 7.113 13.4479 6.38 12.0489 6.38C10.1169 6.38 8.44988 7.831 8.17188 9.755L8.04888 10.612H6.01988C4.35488 10.612 2.99988 11.967 2.99988 13.632V13.977C2.99988 15.642 4.35488 16.997 6.01988 16.997H8.00388V18.997H6.01988C3.25188 18.997 0.999878 16.745 0.999878 13.977V13.632C0.999878 10.864 3.25188 8.612 6.01988 8.612H6.38288C7.12588 6.148 9.42488 4.38 12.0489 4.38C13.9379 4.38 15.7229 5.309 16.8349 6.837ZM11.7405 18.3768L8.08347 14.7198C7.90447 14.5408 8.03147 14.2368 8.28347 14.2368H10.5835V10.3508C10.5835 10.1558 10.7425 9.99683 10.9375 9.99683H13.0625C13.2575 9.99683 13.4165 10.1558 13.4165 10.3508V14.2368H15.7165C15.9685 14.2368 16.0945 14.5408 15.9165 14.7198L12.2595 18.3768C12.1155 18.5198 11.8835 18.5198 11.7405 18.3768Z" fill="#65676A"/>
</svg>

<svg xmlns="http://www.w3.org/2000/svg" width="24" height="24" viewBox="0 0 24 24">
    <path fill="#65676A" fill-rule="evenodd" d="M12.049 4.38c1.889 0 3.674.929 4.786 2.457h.086c3.352 0 6.079 2.728 6.079 6.08 0 3.353-2.727 6.08-6.08 6.08h-.916v-2h.917c2.249 0 4.079-1.83 4.079-4.08s-1.83-4.08-4.08-4.08h-1.198l-.29-.494c-.72-1.23-1.984-1.963-3.383-1.963-1.932 0-3.6 1.451-3.877 3.375l-.123.857h-2.03c-1.664 0-3.02 1.355-3.02 3.02v.345c0 1.665 1.356 3.02 3.02 3.02h1.985v2H6.02c-2.768 0-5.02-2.252-5.02-5.02v-.345c0-2.768 2.252-5.02 5.02-5.02h.363c.743-2.464 3.042-4.232 5.666-4.232zm1.014 5.617c.194 0 .353.159.353.354v3.886h2.3c.253 0 .379.304.2.483l-3.657 3.657c-.143.143-.376.143-.518 0L8.084 14.72c-.18-.18-.053-.483.2-.483h2.3V10.35c0-.195.159-.354.354-.354z"/>
</svg>
